X: 173
T: the Blue-bells of Scotland
O: Scotch
%R: air, march
B: "The Everyday Song Book", 1927
N: This is version 2, for ABC software that understands voice overlays.
F: http://www.library.pitt.edu/happybirthday/pdf/The_Everyday_Song_Book.pdf
Z: 2017 John Chambers <jc:trillian.mit.edu>
M: 4/4
L: 1/4
K: Eb
% - - - - - - - - - - - - - - - - - - - - - - - - - - - - -
B & B | e2 dc & G2 BA | B2 c(d/e/) & G2 AF | GG AF & GE CD | E3 & E3 |
w: 1.~Oh! where, tell me where is  your* High-land lad-die gone?
w: 2.~Oh! where, tell me where did your* High-land lad-die dwell?
%
B & B | e2 dc & G2 BA | B2 c(d/e/) & G2 AF | GG AF & GE CD | E2 z & E2 x |
w: Oh! where, tell me where is  your* High-land lad-die gone?
w: Oh! where, tell me where did your* High-land lad-die dwell?
%
B & D | GE GB & EE ED | e2 c(d/e/) & C2 E(F/G/) | dB c=A & FG EF | B2 & D2 |
w: He's gone with stream-ing ban-ners where* no-ble deeds are done,
w: He dwelt in Bon-nie Scot-land, where* blooms the sweet blue bell,
%
cd & AA | e2 dc & G2 BA | (B2 c)(d/e/) & (G2 A)F | GG AF & GE CD | E3 & E3 |]
w: And it's oh, in my heart,* I* wish him safe at home.
w: And it's oh, in my heart,* I* loved my lad-die well.
% - - - - - - - - - - - - - - - - - - - - - - - - - - - - -
